!!!OTL: FUESELIER SIND LUSTGE BRUEDER
!!!ARE: Europa, Mitteleuropa, Deutschland, Sachsen
!!!SCT: E1331A
!!!YEM: Copyright 1995, estate of Helmut Schaffrath.
**kern
*ICvox
*Ivox
*M4/4
*k[b-]
*F:
=1
{4f
4c
4f
4a
=2
4g
4g
4f
4c}
=3
{4.f
8g
4a
4f
=4
2cc
2r}
=5
{4f
4c
4f
4a
=6
4g
4g
4f
4c}
=7
{4.f
8g
4a
4f
=8
2cc
2r}
=9
{4dd
4dd
4ff
4dd
=10
4cc
4cc
4a
4f}
=11
{4cc
4cc
4b-
4g
=12
4f
4a
4cc
4ff}
=13
{4dd
4dd
4ff
4dd
=14
4cc
4cc
4a
4f}
=15
{4cc
4cc
4b-
4g
=16
2f
4r}
{4cc
=17
4a
4cc
4a
4cc
=18
8dd
8cc
8b-
8a
4b-}
{4b-
=19
4g
4b-
4g
4b-
=20
8cc
8b-
8a
8g
4a
8r}
{8c
=21
2f
4a
4f
=22
2g
4b-}
{4g
=23
4cc
4cc
4ee
4ee
=24
2ff
2r}
==
!!!AGN: Staende -, Soldaten -, Kriegs - Lied
!!!ONB: ESAC (Essen Associative Code) Database: ERK3
!!!AMT: simple quadruple
!!!AIN: vox
!!!EED: Helmut Schaffrath
!!!EEV: 1.0
*-
